resources/svg/major-analytics.svg

<svg xmlns="http://www.w3.org/2000/svg" viewBox="0 0 20 20" fill="currentColor"><path d="M15.5 3a1.5 1.5 0 0 0-1.5 1.5v12a1.5 1.5 0 0 0 1.5 1.5h1a1.5 1.5 0 0 0 1.5-1.5v-12a1.5 1.5 0 0 0-1.5-1.5h-1zm-7.5 5.5a1.5 1.5 0 0 1 1.5-1.5h1a1.5 1.5 0 0 1 1.5 1.5v8a1.5 1.5 0 0 1-1.5 1.5h-1a1.5 1.5 0 0 1-1.5-1.5v-8zm-6 4a1.5 1.5 0 0 1 1.5-1.5h1a1.5 1.5 0 0 1 1.5 1.5v4a1.5 1.5 0 0 1-1.5 1.5h-1a1.5 1.5 0 0 1-1.5-1.5v-4z"/></svg>

<svg xmlns="http://www.w3.org/2000/svg" viewBox="0 0 20 20" fill="currentColor"><path d="M15.5 3A1.5 1.5 0 0 0 14 4.5v12a1.5 1.5 0 0 0 1.5 1.5h1a1.5 1.5 0 0 0 1.5-1.5v-12A1.5 1.5 0 0 0 16.5 3h-1zM8 8.5A1.5 1.5 0 0 1 9.5 7h1A1.5 1.5 0 0 1 12 8.5v8a1.5 1.5 0 0 1-1.5 1.5h-1A1.5 1.5 0 0 1 8 16.5v-8zm-6 4A1.5 1.5 0 0 1 3.5 11h1A1.5 1.5 0 0 1 6 12.5v4A1.5 1.5 0 0 1 4.5 18h-1A1.5 1.5 0 0 1 2 16.5v-4z"/></svg>
